!!!OTL: 184. Sher
!!!Genre:	Sher
!!!Mode:	Altered Dorian
!!!Listening/dance:	dance
!!!One_Mode:	no
**kern
*thru
*I"P1
*clefG2
*k[b-]
*g:dor
*M2/4
*>A
=1
8d
4g
8a
=2
4b-
4dd
=3
(8qdd/
8cc#XL)
8b-J
8aL
8gJ
=4
(8ddL
16cc#XL
16eeJJ
4dd)
=5
8d
4g
8a
=6
4b-
4dd
*>A1
=7
(8qdd/
8cc#XL)
8b-
8a
8b-J
=8
4.g
16dLL
16dJJ
*>A
=1
8d
4g
8a
=2
4b-
4dd
=3
(8qdd/
8cc#XL)
8b-J
8aL
8gJ
=4
(8ddL
16cc#XL
16eeJJ
4dd)
=5
8d
4g
8a
=6
4b-
4dd
*>A2
=9:|!
(8qdd/
8cc#L)
8b-
8a
8ddJ
=
4.g
!!!Begin-Modulation
*-
